X: 1
T: String Quartet in D Minor opus 42 no 1 mvt 3
C: Franz Joseph Haydn
%%abc-version 2.0
%%abcx-abcm2ps-target-version 5.9.1 (29 Sep 2008)
%%abc-creator hum2abc beta
%%abcx-conversion-date 2021/02/14 14:38:20
%%abc-copyright Copyright (c) 1994, 2000 Center for Computer Assisted Research in the Humanities
%%abc-edited-by Frances Bennion
%%abcx-initial-encoding-date 1997/04/15
%%gracespace 0 6 6
%%humdrum-veritas 78577945
%%humdrum-veritas-data 2721678203
%%linebreak <none>
%%barnumbers 0
L: 1/4
M: 2/2
N: Derived from op42-03.krn
Q: "Adagio e cantabile"
%%staves [1 2 3 4]
V: 1
V: 2
V: 3 clef=alto
V: 4 clef=bass
K: Bb
[V:1]d2 e d/c/ [I:setbarnb2] |
[V:2]B2 A2 |
[V:3]F2 E2 |
[V:4]B,4- |
[V:1]B3/ c//d// e f |
[V:2]F2 B B |
[V:3]D2 B, B, |
[V:4]B,2 G, D, |
[V:1]g >a b a/g/ |
[V:2]B4- |
[V:3]B,2 F,2 |
[V:4]E,2 D,2 |
[V:1]e2 d2 |
[V:2]B A B2 |
[V:3]G, C F,2 |
[V:4]C, F,, B,,2 |
[V:1]c2 d c/B/ |
[V:2]A2 B A/G/ |
[V:3]F,4 |
[V:4]F,2 B,,2 |
[V:1]c3/ A//B// c d |
[V:2]A3/ F//G// A =B |
[V:3]F3 F |
[V:4]F,3 D, |
[V:1]e e/>f/ g f/e/ |
[V:2]c >d e d/c/ |
[V:3]G E C F- |
[V:4]C, >B,, A,,2 |
[V:1]d2 c2 |
[V:2]B2 A2 |
[V:3]F4 |
[V:4]B,, D, F,2 |
[V:1]d2 e d/c/ |
[V:2]B2 A2 |
[V:3]F2 E2 |
[V:4]B,4- |
[V:1]B3/ c//d// e f |
[V:2]F2 B B |
[V:3]D2 B, _A, |
[V:4]B,2 G, D, |
[V:1]g g3//a/8b/8 d c/B//c// |
[V:2]B3 A |
[V:3]G,2 F, E |
[V:4]E,2 F, F, |
[V:1]c2 B z |
[V:2]A2 B z |
[V:3]E2 D z |
[V:4]B,,3 z |
[V:1]f4- |
[V:2]D2 E D/C/ |
[V:3]B,2 F,2 |
[V:4]B,2 C B,/A,/ |
[V:1]f/a/ b/c'/ d'/b/ f'/f'/ |
[V:2]D2 z2 |
[V:3]B,2 z2 |
[V:4]B,2 z2 |
[V:1]f'4- |
[V:2]c2 d c/d/ |
[V:3]A2 B A/B/ |
[V:4]F2 B,2 |
[V:1]f'/=e'/ f'/e'/ f'/_e'/ d'/c'/ |
[V:2]c2 z2 |
[V:3]A2 z2 |
[V:4]F2 z2 |
[V:1]b >d' d'/c'/ c'/b/ |
[V:2]g >b b/a/ a/g/ |
[V:3]d2 G c |
[V:4]G2 =E2 |
[V:1]b a/b/ =b/c'/ d'/c'/ |
[V:2]g f/g/ ^g/a/ b/a/ |
[V:3]c2 z2 |
[V:4]F2 z2 |
[V:1]c'3 =e |
[V:2]b/a/ g/f/ =e B |
[V:3]=E/F/ G/A/ B G |
[V:4]C/D/ =E/F/ G C |
[V:1]g2 f z/f/ |
[V:2]B2 A z |
[V:3]=E2 F z |
[V:4]F,3 z |
[V:1]f4- |
[V:2]D2 E D/C/ |
[V:3]B,2 F,2 |
[V:4]B,2 C B,/A,/ |
[V:1]f/g//a// b//c'//d'//e'// f'/f'/ f'/f'/ |
[V:2]D2 z2 |
[V:3]B,2 z2 |
[V:4]B,2 z2 |
[V:1]f'4- |
[V:2]c2 d c/d/ |
[V:3]A2 B A/B/ |
[V:4]F2 B,2 |
[V:1]f'//=e'//f'//e'// f'//e'//f'//e'// f'/_e'/ d'/c'/ |
[V:2]c2 z2 |
[V:3]A2 z2 |
[V:4]F2 z2 |
[V:1]b b/^c'/ d' =c'/b/ |
[V:2]g4- |
[V:3]d B2 c- |
[V:4]G2 =E2 |
[V:1]b a/b/ =b/c'/ d'/c'/ |
[V:2]g f/g/ ^g/a/ b/a/ |
[V:3]c2 z2 |
[V:4]F2 z2 |
[V:1]c'3 =e |
[V:2]b/a/ g/f/ =e B |
[V:3]=E/F/ G/A/ B G |
[V:4]C/D/ =E/F/ G C |
[V:1]g2 f z |
[V:2]B2 A z |
[V:3]=E2 F z |
[V:4]F,3 z |
[V:1]f4- |
[V:2]c2 d c/B/ |
[V:3]A2 B A/G/ |
[V:4]F2 B,2 |
[V:1]f4 |
[V:2]c3/ A//B// c c |
[V:3]A3/ F//G// A A |
[V:4]F2 z2 |
[V:1]^f2 g f/g/ |
[V:2]c2 B A/B/ |
[V:3]A2 G2 |
[V:4]D,4- |
[V:1]a3/ ^f//g// a a |
[V:2]A2 z2 |
[V:3]^F3/ D//=E// F F |
[V:4]D,4 |
[V:1]b2 a g/^f/ |
[V:2]d2 c2 |
[V:3]G G, ^F, A, |
[V:4]G,2 D,2 |
[V:1]^f2 g =f |
[V:2]c2 B d |
[V:3]A,2 G, _A |
[V:4]E,3 =B,, |
[V:1]e d/c/ B A |
[V:2]c B/A/ G ^F |
[V:3]G C D D |
[V:4]C,2 D,2 |
[V:1]G4 |
[V:2]G4 |
[V:3]G,4 |
[V:4]G,,4 |
[V:1]_A2 F E/D/ |
[V:2]_A2 _A,2- |
[V:3]_A,2 D, F, |
[V:4]_A,,2 B,,2 |
[V:1]D2 E ^F |
[V:2]A,2 G, A, |
[V:3]F,2 E, z |
[V:4]E,,4- |
[V:1]G =B c e/c/ |
[V:2]B, _A G G/E/ |
[V:3]z F E C |
[V:4]E,,3 C,, |
[V:1]B2 A/B/ c/^c/ |
[V:2]D2 C z |
[V:3]F2 z2 |
[V:4]F,,3 z |
[V:1]d2 e d/c/ |
[V:2]B2 A2 |
[V:3]F2 E2 |
[V:4]B,4- |
[V:1]B3/ c//d// e f |
[V:2]F2 B B |
[V:3]D2 B, B, |
[V:4]B,2 G, D, |
[V:1]g >a b a/g/ |
[V:2]B4- |
[V:3]B,2 F,2 |
[V:4]E,2 D,2 |
[V:1]e2 d2 |
[V:2]B A B2 |
[V:3]G, C F,2 |
[V:4]C, F,, B,,2 |
[V:1]c2 d c/B/ |
[V:2]A2 B A/G/ |
[V:3]F,4 |
[V:4]F,2 B,,2 |
[V:1]c3/ A//B// c d |
[V:2]A3/ F//G// A =B |
[V:3]F3 F |
[V:4]F,3 D, |
[V:1]e e/>f/ g f/e/ |
[V:2]c >d e d/c/ |
[V:3]G E C F- |
[V:4]C, >B,, A,,2 |
[V:1]d2 c2 |
[V:2]B2 A2 |
[V:3]F4 |
[V:4]B,, D, F,2 |
[V:1]d2 e d/c/ |
[V:2]B2 A2 |
[V:3]F2 E2 |
[V:4]B,4- |
[V:1]B3/ c//d// e f |
[V:2]F2 B B |
[V:3]D2 B, _A, |
[V:4]B,2 G, D, |
[V:1]g g3//a/8b/8 d c/B//c// |
[V:2]B3 A |
[V:3]G,2 F, E |
[V:4]E,2 F, F, |
[V:1]c2 B z |
[V:2]A2 B z |
[V:3]E2 D z |
[V:4]B,,4- |
[V:1]b4- |
[V:2]G2 B A/G/ |
[V:3]E2 G F/E/ |
[V:4]B,,4- |
[V:1]b f d B |
[V:2]F4 |
[V:3]D4 |
[V:4]B,,4- |
[V:1]A4 |
[V:2]E >F G F/E/ |
[V:3]C >D E D/C/ |
[V:4]B,,4- |
[V:1]B z F z |
[V:2]D z D z |
[V:3]B, z B, z |
[V:4]B,, z B,, z |
[V:1]D z3 |]
[V:2]B, z3 |]
[V:3]F, z3 |]
[V:4]B,, z3 |]

